X:3605
T:The Whistling Wind
P:Three Times Three
C:Trad. (Kerr's Coll.)
B:RSCDS 36-5
Z:Anselm Lingnau <anselm@strathspey.org>
R:Reel (8x32)
M:C
L:1/8
K:F
c2|"F"f2 f2 "Bb"defd|"C7"cdcB "F"A2 F2|f2 f2 "Bb"d2 ef|"G"gagf "C7"ecde|
"F"f2 f2 "Bb"defd|"C7"cdcB "F"A2 F2|"Bb"defd "C7"efge|"F"f2 a2 f2 z2||
"F"a2 a2 "Dm"f2 ga|"Gm"gagf "C"e2 c2|"F"a2 a2 "Dm"f2 ga|"Gm"bag^f "C"gedc|
"F"a2 a2 "Dm"f2 ga|"G7"gagf "C7"e2 c2|"Bb"defd "C7"efge|"F"f2 a2 f2|]
